dist/images/logo_ap.svg

<svg width="30" height="35" viewBox="0 0 30 35" fill="none" xmlns="http://www.w3.org/2000/svg">
<path fill-rule="evenodd" clip-rule="evenodd" d="M0 27.3735H30V30.9786H0.000289389L0 27.3735Z" fill="#272727"/>
<path fill-rule="evenodd" clip-rule="evenodd" d="M6.90608 4.58594L1.86328 19.6263H5.51441L8.93962 8.99524L10.6564 14.3102H8.4356L7.54872 17.3442H11.6363L12.3734 19.6263H16.1289L11.0867 4.58594H6.90608Z" fill="#272727"/>
<path fill-rule="evenodd" clip-rule="evenodd" d="M21.867 4.58594H16.625V19.6263H20.2501V7.62001H21.7108C23.4058 7.62001 24.3708 8.42368 24.3708 9.87593C24.3708 11.3022 23.4058 12.132 21.7108 12.132H21.4761V15.166H21.867C25.779 15.166 28.074 13.208 28.074 9.87593C28.074 6.47891 25.779 4.58594 21.867 4.58594Z" fill="#272727"/>
</svg>

<svg width="30" height="35" viewBox="0 0 30 35" fill="none" xmlns="http://www.w3.org/2000/svg"><path fill-rule="evenodd" clip-rule="evenodd" d="M0 27.373h30v3.606H0v-3.605zM6.906 4.586l-5.043 15.04h3.651L8.94 8.996l1.716 5.314h-2.22l-.887 3.034h4.087l.737 2.282h3.756l-5.042-15.04h-4.18zM21.867 4.586h-5.242v15.04h3.625V7.62h1.46c1.696 0 2.66.804 2.66 2.256 0 1.426-.964 2.256-2.66 2.256h-.234v3.034h.391c3.912 0 6.207-1.958 6.207-5.29 0-3.397-2.295-5.29-6.207-5.29z" fill="#272727"/></svg>
